X:263
T:Rick’s Hornpipe TS.263
M:C|
L:1/8
Q:1/2=84
S:Thomas Sands’ MS,1810,Lincolnshire
R:.hornpipe
O:England;Lincolnshire
Z:vmp.Ruairidh Greig, 2011
K:Bb
“qu.in ms”F2|B3cd3e|(3fgf (3edc B2(3fga|b>fd>B c>=Bc>d|egec BAGF|
B3 cd3e|(3fgf (3edc B2f2|g>ba>c’ b>=ef>d|(3cdc (3BAGF2:|
|:f2|fedc =B_aga|=B_aga gfed|edcB Ag^fg|Ag^fg =fedc|
“triplet signs added”(3dbb (3caa (3Bgg (3Aff|(3Gee (3Fdd (3Ecc (3DBB|d>fd>B F>ec>A|B2B2B2:|]

